X: 25903
T: Matthew's
R: waltz
M: 3/4
K: Gmajor
(3GFE|:D3 D EG|A4 GA|B4 BA|G2 E2 GE|
D2 E2 G2|c3 B BA|B6|d4 (3GFE|
D3 D EG|A4 GA|B4 BA|G2 E2 GE|
D2 E2 G2|c3 c BA|1 (G6|G4) (3GFE:|2 (G6|G2) B2 d2||
|:e4eg|e2 d2 B2|(d4 d) e|d4 Bd|
e4eg|e2 d2 B2|(A6|A4) Bd|
e4eg|e2 d2 B2|d6|B2 A2 G2|E3 D EG|
c3 c BA|1 (G6|G2) B2 d2:|2 (G6|G4) (3GFE||

